; generated by Slic3r 1.1.7 on 2014-11-28 at 22:49:30

; perimeters extrusion width = 0.50mm
; infill extrusion width = 0.52mm
; solid infill extrusion width = 0.52mm
; top infill extrusion width = 0.52mm
; support material extrusion width = 0.50mm

G21 ; set units to millimeters
M107
M190 S90 ; wait for bed temperature to be reached
M104 S230 ; set temperature
G28 ; home all axes
G1 Z5 F5000 ; lift nozzle

M109 S230 ; wait for temperature to be reached
G90 ; use absolute coordinates
G92 E0
M82 ; use absolute distances for extrusion
G1 F1800.000 E-1.00000
G92 E0
G1 Z0.500 F7800.000
G1 X71.309 Y78.427 F7800.000
G1 E1.00000 F1800.000
G1 X73.645 Y76.767 E1.55836 F1080.000
G1 X85.078 Y71.825 E3.98531
G1 X87.813 Y71.259 E4.52953
G1 X93.689 Y71.259 E5.67446
G1 X95.392 Y71.473 E6.00877
G1 X121.572 Y78.147 E11.27305 F1080.000
G1 X122.388 Y78.388 E11.43888
G1 X123.189 Y78.678 E11.60494
G1 X123.971 Y79.015 E11.77084
G1 X124.731 Y79.399 E11.93673
G1 X125.467 Y79.828 E12.10273
G1 X126.232 Y80.343 E12.28231
G1 X126.854 Y80.816 E12.43463
G1 X127.499 Y81.371 E12.60047
G1 X128.111 Y81.964 E12.76651
G1 X128.686 Y82.593 E12.93246
G1 X129.221 Y83.255 E13.09836
G1 X129.754 Y84.007 E13.27794
G1 X130.167 Y84.670 E13.43023
G1 X130.575 Y85.418 E13.59621
G1 X130.936 Y86.189 E13.76210
G1 X131.251 Y86.981 E13.92809
G1 X131.516 Y87.790 E14.09401
G1 X131.733 Y88.613 E14.25988
G1 X131.899 Y89.448 E14.42590
G1 X132.015 Y90.292 E14.59178
G1 X132.080 Y91.141 E14.75776
G1 X132.093 Y91.993 E14.92371
G1 X132.055 Y92.844 E15.08967
G1 X132.001 Y93.419 E15.20231
G1 X129.262 Y117.921 E20.00619
G1 X128.611 Y120.168 E20.46208
G1 X127.246 Y122.069 E20.91796
G1 X125.324 Y123.403 E21.37385
G1 X123.354 Y123.983 E21.77390
G1 X90.072 Y128.576 E28.32050
G1 X88.878 Y128.694 E28.55422
G1 X87.679 Y128.738 E28.78795
G1 X86.480 Y128.710 E29.02172
G1 X85.285 Y128.608 E29.25544
G1 X84.098 Y128.434 E29.48919
G1 X82.734 Y128.137 E29.76104
G1 X81.767 Y127.869 E29.95663
G1 X80.632 Y127.481 E30.19037
G1 X79.522 Y127.025 E30.42411
G1 X78.443 Y126.502 E30.65786
G1 X77.398 Y125.913 E30.89158
G1 X76.231 Y125.148 E31.16343
G1 X75.424 Y124.551 E31.35900
G1 X74.503 Y123.782 E31.59275
G1 X73.496 Y122.817 E31.86459
G1 X72.811 Y122.083 E32.06021
G1 X72.046 Y121.159 E32.29394
G1 X71.231 Y120.027 E32.56580
G1 X70.691 Y119.180 E32.76139
G1 X70.107 Y118.133 E32.99510
G1 X69.588 Y117.051 E33.22887
G1 X69.363 Y116.513 E33.34247
G1 X69.136 Y115.940 E33.46261
G1 X68.753 Y114.803 E33.69635
G1 X68.440 Y113.645 E33.93008
G1 X68.198 Y112.470 E34.16383
G1 X68.028 Y111.283 E34.39756
G1 X67.975 Y110.702 E34.51117
G1 X67.913 Y109.504 E34.74488
G1 X67.907 Y108.888 E34.86502
G1 X67.941 Y107.894 E35.05869
G1 X69.501 Y82.669 E39.98325
G1 X70.040 Y80.392 E40.43913
G1 X71.268 Y78.490 E40.88041
G1 F1800.000 E39.88041
G92 E0
G1 X93.939 Y90.664 F7800.000
G1 E1.00000 F1800.000
G1 X93.177 Y90.664 E1.14849 F441.000
G1 X92.935 Y90.597 E1.19755
G1 X82.851 Y86.238 E3.33816
G1 X82.421 Y85.838 E3.45254
G1 X82.338 Y85.699 E3.48411
G1 X82.347 Y85.620 E3.49959
G1 X82.732 Y85.479 E3.57943
G1 X83.064 Y85.406 E3.64583
G1 X83.315 Y85.328 E3.69697
G1 X83.835 Y85.068 E3.81018
G1 X82.595 Y86.553 F7800.000
G1 X82.194 Y85.047 E4.11376 F441.000
G1 X82.194 Y84.068 E4.30453
G1 X82.326 Y83.535 E4.41166
G1 X83.993 Y82.583 E4.78555
G1 X83.783 Y84.045 F7800.000
G1 X83.375 Y83.865 E4.87253 F441.000
G1 X82.732 Y83.689 E5.00246
G1 X82.349 Y83.522 E5.08379
G1 X82.420 Y83.403 E5.11076
G1 X82.850 Y83.003 E5.22514
G1 X92.935 Y78.644 E7.36580
G1 X93.177 Y78.577 E7.41486
G1 X93.939 Y78.577 E7.56335
G1 F1800.000 E6.56335
G92 E0
G1 X88.663 Y90.664 F7800.000
G1 E1.00000 F1800.000
G1 X87.901 Y90.664 E1.14849 F441.000
G1 X87.659 Y90.597 E1.19755
G1 X77.574 Y86.238 E3.33835
G1 X77.144 Y85.838 E3.45266
G1 X77.115 Y85.791 E3.46344
G1 X77.556 Y85.516 E3.56462
G1 X77.693 Y85.476 E3.59245
G1 X77.806 Y85.411 E3.61798
G1 X77.924 Y85.284 E3.65170
G1 X78.012 Y85.095 E3.69236
G1 X78.069 Y84.878 E3.73615
G1 X78.091 Y84.671 E3.77655
G1 X78.069 Y84.364 E3.83670
G1 X77.995 Y84.113 E3.88757
G1 X77.933 Y84.010 E3.91097
G1 X77.850 Y83.922 E3.93465
G1 X77.748 Y83.854 E3.95850
G1 X77.556 Y83.792 E3.99791
G1 X77.071 Y83.525 E4.10578
G1 X77.144 Y83.403 E4.13351
G1 X77.574 Y83.003 E4.24782
G1 X87.659 Y78.644 E6.38862
G1 X87.901 Y78.577 E6.43768
G1 X88.663 Y78.577 E6.58616
G1 F1800.000 E5.58616
G92 E0
G1 X74.944 Y109.090 F7800.000
G1 E1.00000 F1800.000
G1 X74.983 Y108.238 E1.16613 F441.000
G1 X75.047 Y107.563 E1.29817
G1 X75.183 Y106.702 E1.46805
G1 X75.321 Y106.050 E1.59795
G1 X75.496 Y105.430 E1.72347
G1 X75.914 Y104.279 E1.96216
G1 X76.430 Y103.170 E2.20041
G1 X76.804 Y102.515 E2.34737
G1 X77.115 Y102.045 E2.45727
G1 X77.691 Y101.259 E2.64713
G1 X78.059 Y100.818 E2.75900
G1 X78.644 Y100.180 E2.92755
G1 X79.337 Y99.548 E3.11029
G1 X79.879 Y99.106 E3.24673
G1 X80.504 Y98.656 E3.39662
G1 X81.151 Y98.241 E3.54655
G1 X81.633 Y97.977 E3.65370
G1 X82.730 Y97.463 E3.88965
G1 X83.239 Y97.264 E3.99620
G1 X83.863 Y97.052 E4.12456
G1 X84.721 Y96.821 E4.29760
G1 X85.468 Y96.678 E4.44592
G1 X86.230 Y96.574 E4.59579
G1 X87.085 Y96.510 E4.76270
G1 X87.558 Y96.498 E4.85507
G1 X88.535 Y96.542 E5.04552
G1 X89.300 Y96.626 E5.19542
G1 X90.058 Y96.756 E5.34531
G1 X90.811 Y96.926 E5.49580
G1 X91.252 Y97.059 E5.58550
G1 X92.373 Y97.466 E5.81791
G1 X93.068 Y97.778 E5.96627
G1 X93.850 Y98.185 E6.13812
G1 X94.598 Y98.662 E6.31097
G1 X95.471 Y99.309 E6.52273
G1 X95.970 Y99.735 E6.65043
G1 X96.458 Y100.187 E6.78009
G1 X96.912 Y100.677 E6.91027
G1 X97.336 Y101.174 E7.03767
G1 X97.989 Y102.055 E7.25124
G1 X98.487 Y102.844 E7.43315
G1 X98.871 Y103.585 E7.59570
G1 X99.183 Y104.279 E7.74404
G1 X99.454 Y104.991 E7.89239
G1 X99.652 Y105.608 E8.01870
G1 X99.732 Y105.885 E8.07486
G1 X99.912 Y106.703 E8.23802
G1 X100.072 Y107.778 E8.44982
G1 X100.124 Y108.428 E8.57690
G1 X100.149 Y109.096 E8.70711
G1 X100.124 Y109.768 E8.83817
G1 X100.072 Y110.418 E8.96525
G1 X99.911 Y111.500 E9.17826
G1 X99.731 Y112.316 E9.34122
G1 X99.651 Y112.591 E9.39689
G1 X99.452 Y113.210 E9.52369
G1 X99.183 Y113.917 E9.67107
G1 X98.688 Y114.976 E9.89890
G1 X98.463 Y115.395 E9.99147
G1 X98.105 Y115.965 E10.12260
G1 X97.734 Y116.503 E10.25001
G1 X97.336 Y117.022 E10.37741
G1 X96.547 Y117.915 E10.60966
G1 X96.115 Y118.331 E10.72650
G1 X95.471 Y118.887 E10.89227
G1 X94.598 Y119.534 E11.10404
G1 X93.850 Y120.011 E11.27691
G1 X93.063 Y120.421 E11.44974
G1 X92.443 Y120.701 E11.58230
G1 X91.707 Y120.985 E11.73602
G1 X91.252 Y121.137 E11.82951
G1 X90.811 Y121.270 E11.91927
G1 X90.058 Y121.440 E12.06974
G1 X89.106 Y121.595 E12.25765
G1 X88.489 Y121.658 E12.37844
G1 X87.677 Y121.697 E12.53682
G1 X87.085 Y121.687 E12.65226
G1 X86.230 Y121.623 E12.81922
G1 X85.154 Y121.462 E13.03127
G1 X84.713 Y121.374 E13.11896
G1 X83.968 Y121.178 E13.26889
G1 X83.239 Y120.932 E13.41880
G1 X82.725 Y120.732 E13.52634
G1 X81.634 Y120.220 E13.76125
G1 X81.151 Y119.956 E13.86845
G1 X80.521 Y119.552 E14.01420
G1 X79.879 Y119.090 E14.16827
G1 X79.332 Y118.644 E14.30583
G1 X78.639 Y118.011 E14.48870
G1 X78.056 Y117.375 E14.65686
G1 X77.691 Y116.938 E14.76787
G1 X77.112 Y116.147 E14.95874
G1 X76.804 Y115.682 E15.06763
G1 X76.431 Y115.026 E15.21453
G1 X75.912 Y113.913 E15.45383
G1 X75.496 Y112.767 E15.69146
G1 X75.321 Y112.146 E15.81704
G1 X75.182 Y111.489 E15.94797
G1 X75.047 Y110.633 E16.11683
G1 X74.983 Y109.954 E16.24974
G1 X74.944 Y109.090 E16.41827
G1 F1800.000 E15.41827
G92 E0
G1 X81.834 Y108.569 F7800.000
G1 E1.00000 F1800.000
G1 X84.047 Y104.153 E1.53909 F1080.000
G1 X87.300 Y104.358 F7800.000
G1 X82.949 Y113.039 E2.59883 F1080.000
G1 X82.298 Y112.106 E2.72298
G1 X86.822 Y103.081 E3.82472
G1 X85.549 Y103.388 E3.96758
G1 X82.808 Y108.856 E4.63518
G1 X82.459 Y109.554 F7800.000
G1 X81.773 Y110.921 E4.80207 F1080.000
G1 F1800.000 E3.80207
G92 E0
G1 X88.989 Y103.219 F7800.000
G1 E1.00000 F1800.000
G1 X83.702 Y113.769 E2.28788 F1080.000
G1 X84.532 Y114.344 E2.39810
G1 X89.948 Y103.538 E3.71713
G1 X90.832 Y104.006 E3.82629
G1 X85.439 Y114.767 E5.13995
G1 X86.413 Y115.054 E5.25085
G1 X91.638 Y104.630 E6.52341
G1 X92.360 Y105.421 E6.64032
G1 X88.004 Y114.112 E7.70133
G1 X88.647 Y115.061 E7.82638
G1 X92.936 Y106.503 E8.87104
G1 X93.445 Y107.721 E9.01501
G1 X93.019 Y108.569 E9.11862
G1 X92.526 Y109.554 F7800.000
G1 X89.972 Y114.649 E9.74053 F1080.000
G1 X91.629 Y113.575 E9.95600
G1 X93.578 Y109.686 E10.43070
G1 F1800.000 E9.43070
G92 E0
G1 X115.084 Y112.433 F7800.000
G1 E1.00000 F1800.000
G1 X115.134 Y112.191 E1.04822 F441.000
G1 X115.217 Y111.958 E1.09645
G1 X115.331 Y111.738 E1.14468
G1 X115.474 Y111.536 E1.19293
G1 X115.643 Y111.355 E1.24115
G1 X115.835 Y111.199 E1.28938
G1 X116.046 Y111.070 E1.33762
G1 X116.273 Y110.971 E1.38584
G1 X116.512 Y110.905 E1.43409
G1 X116.757 Y110.871 E1.48232
G1 X117.004 Y110.871 E1.53055
G1 X117.199 Y110.898 E1.56878
G1 X117.488 Y110.971 E1.62693 F441.000
G1 X117.715 Y111.070 E1.67518
G1 X117.927 Y111.199 E1.72340
G1 X118.119 Y111.355 E1.77164
G1 X118.288 Y111.536 E1.81987
G1 X118.430 Y111.738 E1.86809
G1 X118.544 Y111.958 E1.91634
G1 X118.627 Y112.191 E1.96456
G1 X118.677 Y112.433 E2.01279
G1 X118.694 Y112.680 E2.06102
G1 X118.677 Y112.927 E2.10927
G1 X118.627 Y113.170 E2.15750
G1 X118.544 Y113.403 E2.20572
G1 X118.430 Y113.623 E2.25396
G1 X118.288 Y113.825 E2.30220
G1 X118.119 Y114.006 E2.35042
G1 X117.927 Y114.162 E2.39865
G1 X117.715 Y114.291 E2.44689
G1 X117.488 Y114.389 E2.49511
G1 X117.250 Y114.456 E2.54336
G1 X117.004 Y114.490 E2.59160
G1 X116.757 Y114.490 E2.63982
G1 X116.512 Y114.456 E2.68804
G1 X116.273 Y114.389 E2.73627
G1 X116.046 Y114.291 E2.78452
G1 X115.835 Y114.162 E2.83276
G1 X115.643 Y114.006 E2.88099
G1 X115.474 Y113.825 E2.92922
G1 X115.331 Y113.623 E2.97744
G1 X115.217 Y113.403 E3.02568
G1 X115.134 Y113.170 E3.07393
G1 X115.084 Y112.927 E3.12215
G1 X115.067 Y112.680 E3.17037
G1 X115.079 Y112.508 E3.20401
G1 X115.885 Y110.167 F7800.000
G1 X115.635 Y110.276 E3.25714 F630.000
G1 X115.319 Y110.468 E3.32918
G1 X115.032 Y110.701 E3.40121
G1 X114.780 Y110.971 E3.47321
G1 X114.566 Y111.273 E3.54528
G1 X114.396 Y111.601 E3.61729
G1 X114.273 Y111.950 E3.68931
G1 X114.198 Y112.311 E3.76131
G1 X114.172 Y112.680 E3.83340
G1 X114.197 Y113.049 E3.90540
G1 X114.273 Y113.411 E3.97740
G1 X114.396 Y113.759 E4.04947
G1 X114.567 Y114.088 E4.12151
G1 X114.780 Y114.390 E4.19351
G1 X115.032 Y114.660 E4.26553
G1 X115.319 Y114.893 E4.33756
G1 X115.635 Y115.085 E4.40958
G1 X115.885 Y115.194 E4.46274
G1 X115.767 Y115.763 E4.57594
G1 X112.584 Y115.763 E5.19596
G1 X112.584 Y109.598 E6.39713
G1 X115.767 Y109.598 E7.01715
G1 X115.869 Y110.093 E7.11574
G1 X117.877 Y110.167 F7800.000
G1 X117.995 Y109.598 E7.22894 F630.000
G1 X121.019 Y109.598 E7.81821
G1 X121.019 Y115.763 E9.01937
G1 X117.995 Y115.763 E9.60863
G1 X117.877 Y115.194 E9.72184
G1 X118.127 Y115.085 E9.77496
G1 X118.443 Y114.893 E9.84702
G1 X118.729 Y114.660 E9.91903
G1 X118.982 Y114.390 E9.99104
G1 X119.195 Y114.088 E10.06308
G1 X119.365 Y113.759 E10.13513
G1 X119.489 Y113.411 E10.20714
G1 X119.564 Y113.049 E10.27913
G1 X119.589 Y112.680 E10.35122
G1 X119.564 Y112.311 E10.42323
G1 X119.489 Y111.950 E10.49526
G1 X119.365 Y111.601 E10.56725
G1 X119.195 Y111.273 E10.63933
G1 X118.982 Y110.971 E10.71134
G1 X118.729 Y110.701 E10.78334
G1 X118.443 Y110.468 E10.85540
G1 X118.127 Y110.276 E10.92740
G1 X117.945 Y110.197 E10.96596
G1 X121.912 Y108.705 F7800.000
G1 X121.912 Y116.655 E12.51501 F441.000
G1 X111.692 Y116.655 E14.50636
G1 X111.692 Y108.705 E16.05540
G1 X121.837 Y108.705 E18.03214
G1 X120.349 Y114.613 F7800.000
G1 X120.392 Y114.656 E18.04382 F1080.000
G1 X119.209 Y115.135 E18.29247
G1 X119.175 Y115.101 E18.30188
G1 X120.205 Y113.968 F7800.000
G1 X120.287 Y113.168 E18.38960 F360.000
G1 X120.304 Y112.698 E18.44092
G1 X120.287 Y112.192 E18.49619
G1 X120.205 Y111.393 E18.58392
G1 X119.569 Y110.716 F7800.000
G1 X119.671 Y110.817 E18.61188 F1080.000
G1 X120.392 Y110.265 E18.78885
G1 X120.352 Y110.225 E18.79987
G1 X114.552 Y110.225 F7800.000
G1 X114.586 Y110.259 E18.80928 F1080.000
G1 X113.254 Y111.058 E19.11196
G1 X113.212 Y111.016 E19.12364
G1 X113.444 Y111.708 F7800.000
G1 X113.396 Y112.176 E19.17494 F360.000
G1 X113.378 Y112.657 E19.22745
G1 X113.393 Y113.135 E19.27963
G1 X113.444 Y113.652 E19.33639
G1 X113.905 Y114.235 F7800.000
G1 X113.970 Y114.300 E19.35429 F1080.000
G1 X113.212 Y115.095 E19.56844
G1 X113.252 Y115.135 E19.57946
G1 F1800.000 E18.57946
G92 E0
G1 X116.948 Y97.504 F7800.000
G1 E1.00000 F1800.000
G1 X116.266 Y97.336 E1.13680 F630.000
G1 X115.934 Y97.221 E1.20524
G1 X115.585 Y97.075 E1.27908
G1 X114.988 Y96.760 E1.41046
G1 X114.671 Y96.553 E1.48430
G1 X114.140 Y96.137 E1.61571
G1 X113.644 Y95.640 E1.75249
G1 X113.419 Y95.370 E1.82093
G1 X113.020 Y94.793 E1.95773
G1 X112.848 Y94.487 E2.02617
G1 X112.694 Y94.171 E2.09460
G1 X112.445 Y93.515 E2.23141
G1 X112.351 Y93.176 E2.29983
G1 X112.224 Y92.486 E2.43663
G1 X112.191 Y92.108 E2.51048
G1 X112.192 Y91.434 E2.64188
G1 X112.224 Y91.084 E2.71030
G1 X112.351 Y90.393 E2.84711
G1 X112.445 Y90.055 E2.91554
G1 X112.694 Y89.399 E3.05235
G1 X112.861 Y89.059 E3.12619
G1 X113.211 Y88.482 E3.25758
G1 X113.437 Y88.178 E3.33143
G1 X113.885 Y87.674 E3.46280
G1 X114.140 Y87.433 E3.53124
G1 X114.693 Y87.000 E3.66804
G1 X115.294 Y86.637 E3.80485
G1 X115.610 Y86.483 E3.87327
G1 X115.934 Y86.348 E3.94170
G1 X116.604 Y86.140 E4.07851
G1 X117.295 Y86.013 E4.21533
G1 X117.673 Y85.980 E4.28916
G1 X118.347 Y85.981 E4.42055 F630.000
G1 X119.044 Y86.066 E4.55736
G1 X119.387 Y86.140 E4.62579
G1 X120.058 Y86.348 E4.76259
G1 X120.698 Y86.637 E4.89941
G1 X121.299 Y87.000 E5.03620
G1 X121.582 Y87.208 E5.10463
G1 X122.107 Y87.674 E5.24143
G1 X122.348 Y87.929 E5.30986
G1 X122.781 Y88.482 E5.44668
G1 X123.144 Y89.083 E5.58348
G1 X123.432 Y89.723 E5.72027
G1 X123.641 Y90.393 E5.85709
G1 X123.768 Y91.084 E5.99390
G1 X123.800 Y91.462 E6.06773
G1 X123.799 Y92.136 E6.19912
G1 X123.715 Y92.833 E6.33591
G1 X123.547 Y93.515 E6.47274
G1 X123.421 Y93.872 E6.54657
G1 X123.144 Y94.487 E6.67797
G1 X122.781 Y95.088 E6.81477
G1 X122.348 Y95.640 E6.95158
G1 X121.851 Y96.137 E7.08837
G1 X121.582 Y96.362 E7.15680
G1 X121.004 Y96.760 E7.29360
G1 X120.698 Y96.933 E7.36204
G1 X120.058 Y97.221 E7.49884
G1 X119.387 Y97.430 E7.63564
G1 X118.697 Y97.557 E7.77246
G1 X118.347 Y97.588 E7.84089
G1 X117.645 Y97.588 E7.97769
G1 X117.022 Y97.515 E8.09989
G1 X116.813 Y98.386 F7800.000
G1 X116.391 Y98.297 E8.18407 F441.000
G1 X115.617 Y98.056 E8.34189
G1 X115.194 Y97.877 E8.43149
G1 X114.526 Y97.525 E8.57864
G1 X114.142 Y97.272 E8.66825
G1 X113.548 Y96.805 E8.81540
G1 X112.975 Y96.233 E8.97321
G1 X112.716 Y95.921 E9.05216
G1 X112.256 Y95.255 E9.20997
G1 X112.057 Y94.902 E9.28892
G1 X111.879 Y94.538 E9.36786
G1 X111.592 Y93.780 E9.52568
G1 X111.483 Y93.390 E9.60463
G1 X111.337 Y92.593 E9.76244
G1 X111.289 Y91.785 E9.92026
G1 X111.337 Y90.976 E10.07808
G1 X111.410 Y90.522 E10.16769
G1 X111.592 Y89.789 E10.31483
G1 X111.879 Y89.032 E10.47265
G1 X112.057 Y88.668 E10.55160
G1 X112.286 Y88.269 E10.64120
G1 X112.716 Y87.648 E10.78835
G1 X113.013 Y87.297 E10.87795
G1 X113.548 Y86.764 E11.02510
G1 X114.186 Y86.265 E11.18292
G1 X114.526 Y86.045 E11.26186
G1 X114.879 Y85.846 E11.34081
G1 X115.617 Y85.513 E11.49862
G1 X116.391 Y85.272 E11.65644
G1 X116.787 Y85.187 E11.73539
G1 X117.591 Y85.090 E11.89321
G1 X118.051 Y85.079 E11.98281
G1 X118.804 Y85.126 E12.12996 F441.000
G1 X119.601 Y85.272 E12.28778
G1 X120.374 Y85.513 E12.44559
G1 X120.749 Y85.668 E12.52454
G1 X121.466 Y86.045 E12.68236
G1 X121.850 Y86.297 E12.77196
G1 X122.444 Y86.764 E12.91911
